X:1
T:Title
%%score [ ( 1 2 ) ( 3 4 ) ]
L:1/8
Q:1/4=100
M:4/4
K:G
V:1 treble nm="Midi_20"
V:2 treble 
V:3 bass nm="Midi_20"
V:4 bass 
V:1
"^Philadelphia (L.M.)""^O God of love, O King of peace""^Samuel Wesley\n(1766-1837)""^Henry W. Baker\n(1821-77)" G2 | %1
 D2 G2 B2 AG | c2 BA B2 d2 | e2 dc B2 AG | F2 E2 D2 G2 || D2 G2 FG AB | c2 B2 A2 d2 | G2 c2 B2 A2 | %8
 B2 A2 G2 |] %9
V:2
 B,2 | D2 D2 G2 E2 | A2 GF G2 G2 | G2 G2 G2 FE | D2 ^C2 D2 D2 || D2 D2 DE FG | A2 G2 F2 F2 | %7
 G2 A2 G2 G2 | G2 F2 G2 |] %9
V:3
"^1. O God of love, O King of peace,\nMake wars throughout the world to cease;\nThe wrath of sinful men restrain;\nGive peace, O God, give peace again.\n\n2. Remember, Lord, thy works of old,\nThe wonders that our fathers told;\nRemember not our sin's dark stain; \nGive peace, O God, give peace again.\n" G,2 | %1
 B,2 B,2 E2 B,2 | E2 D2 D2 B,2 | C2 E2 D2 B,2 | %4
 A,2"^3. Whom shall we trust but thee, O Lord?\nWhere rest but on thy faithful word?\nNone ever called on thee in vain;\nGive peace, O God, give peace again.\n\n4. Where saints and angels dwell above,\nAll hearts are knit in holy love;\nO bind us in that heavenly chain;\nGive peace, O God, give peace again." G,2 F,2 B,2 || %5
 G,2 B,2 A,2 D2 | D2 D2 D2 D2 | B,2 D2 D2 E2 | D2 C2 B,2 |] %9
V:4
 G,,2 | G,,2 G,2 E,2 E,2 | A,,2 D,2 G,,2 G,2 | C,2 C,2 G,2 G,,2 | A,,2 A,,2 D,2 G,,2 || %5
 B,,2 G,,2 D,2 D,2 | F,2 G,2 D,2 B,,2 | E,2 F,2 G,2 C,2 | D,2 D,2 G,,2 |] %9

